assets/1. P-Z/Up arrow/Color/Up.Arrow-color.svg

<svg width="100%" height="100%" viewBox="0 0 32 32" fill="none" xmlns="http://www.w3.org/2000/svg">
<g filter="url(#filter0_ii_18590_694)">
<rect x="2.0658" y="2.0625" width="27.875" height="27.875" rx="3.6" fill="url(#paint0_linear_18590_694)"/>
<rect x="2.0658" y="2.0625" width="27.875" height="27.875" rx="3.6" fill="url(#paint1_radial_18590_694)"/>
</g>
<g filter="url(#filter1_f_18590_694)">
<path d="M28.2533 4.5625V27.4375" stroke="url(#paint2_linear_18590_694)" stroke-width="1.5" stroke-linecap="round"/>
</g>
<g filter="url(#filter2_f_18590_694)">
<path d="M5.52966 3.875H27.3109" stroke="url(#paint3_linear_18590_694)" stroke-width="1.5" stroke-linecap="round"/>
</g>
<g filter="url(#filter3_f_18590_694)">
<path d="M15.3063 7.22327C15.6935 6.85071 16.3059 6.85071 16.6931 7.22327L22.0059 12.3355C22.6545 12.9597 22.2127 14.0561 21.3125 14.0561L18.2497 14.0561C18.1117 14.0561 17.9997 14.168 17.9997 14.3061L17.9997 24.0561C17.9997 24.6084 17.552 25.0561 16.9997 25.0561H14.9997C14.4474 25.0561 13.9997 24.6084 13.9997 24.0561L13.9997 14.3061C13.9997 14.168 13.8878 14.0561 13.7497 14.0561L10.6869 14.0561C9.78674 14.0561 9.3449 12.9597 9.99357 12.3355L15.3063 7.22327Z" fill="#579FFF"/>
</g>
<g filter="url(#filter4_ii_18590_694)">
<path d="M15.3063 7.22327C15.6935 6.85071 16.3059 6.85071 16.6931 7.22327L22.0059 12.3355C22.6545 12.9597 22.2127 14.0561 21.3125 14.0561L18.2497 14.0561C18.1117 14.0561 17.9997 14.168 17.9997 14.3061L17.9997 24.0561C17.9997 24.6084 17.552 25.0561 16.9997 25.0561H14.9997C14.4474 25.0561 13.9997 24.6084 13.9997 24.0561L13.9997 14.3061C13.9997 14.168 13.8878 14.0561 13.7497 14.0561L10.6869 14.0561C9.78674 14.0561 9.3449 12.9597 9.99357 12.3355L15.3063 7.22327Z" fill="#FCF2FF"/>
</g>
<defs>
<filter id="filter0_ii_18590_694" x="2.0658" y="1.0625" width="28.875" height="28.875" filterUnits="userSpaceOnUse" color-interpolation-filters="sRGB">
<feFlood flood-opacity="0" result="BackgroundImageFix"/>
<feBlend mode="normal" in="SourceGraphic" in2="BackgroundImageFix" result="shape"/>
<feColorMatrix in="SourceAlpha" type="matrix" values="0 0 0 0 0 0 0 0 0 0 0 0 0 0 0 0 0 0 127 0" result="hardAlpha"/>
<feOffset dx="1" dy="-1"/>
<feGaussianBlur stdDeviation="1.5"/>
<feComposite in2="hardAlpha" operator="arithmetic" k2="-1" k3="1"/>
<feColorMatrix type="matrix" values="0 0 0 0 0.188235 0 0 0 0 0.470588 0 0 0 0 0.843137 0 0 0 1 0"/>
<feBlend mode="normal" in2="shape" result="effect1_innerShadow_18590_694"/>
<feColorMatrix in="SourceAlpha" type="matrix" values="0 0 0 0 0 0 0 0 0 0 0 0 0 0 0 0 0 0 127 0" result="hardAlpha"/>
<feOffset dy="-1"/>
<feGaussianBlur stdDeviation="1.5"/>
<feComposite in2="hardAlpha" operator="arithmetic" k2="-1" k3="1"/>
<feColorMatrix type="matrix" values="0 0 0 0 0.27451 0 0 0 0 0.34902 0 0 0 0 0.8 0 0 0 1 0"/>
<feBlend mode="normal" in2="effect1_innerShadow_18590_694" result="effect2_innerShadow_18590_694"/>
</filter>
<filter id="filter1_f_18590_694" x="25.5033" y="1.8125" width="5.5" height="28.375" filterUnits="userSpaceOnUse" color-interpolation-filters="sRGB">
<feFlood flood-opacity="0" result="BackgroundImageFix"/>
<feBlend mode="normal" in="SourceGraphic" in2="BackgroundImageFix" result="shape"/>
<feGaussianBlur stdDeviation="1" result="effect1_foregroundBlur_18590_694"/>
</filter>
<filter id="filter2_f_18590_694" x="2.77966" y="1.125" width="27.2812" height="5.5" filterUnits="userSpaceOnUse" color-interpolation-filters="sRGB">
<feFlood flood-opacity="0" result="BackgroundImageFix"/>
<feBlend mode="normal" in="SourceGraphic" in2="BackgroundImageFix" result="shape"/>
<feGaussianBlur stdDeviation="1" result="effect1_foregroundBlur_18590_694"/>
</filter>
<filter id="filter3_f_18590_694" x="8.68494" y="5.94385" width="14.6295" height="20.1122" filterUnits="userSpaceOnUse" color-interpolation-filters="sRGB">
<feFlood flood-opacity="0" result="BackgroundImageFix"/>
<feBlend mode="normal" in="SourceGraphic" in2="BackgroundImageFix" result="shape"/>
<feGaussianBlur stdDeviation="0.5" result="effect1_foregroundBlur_18590_694"/>
</filter>
<filter id="filter4_ii_18590_694" x="9.08494" y="6.54385" width="13.6295" height="19.1122" filterUnits="userSpaceOnUse" color-interpolation-filters="sRGB">
<feFlood flood-opacity="0" result="BackgroundImageFix"/>
<feBlend mode="normal" in="SourceGraphic" in2="BackgroundImageFix" result="shape"/>
<feColorMatrix in="SourceAlpha" type="matrix" values="0 0 0 0 0 0 0 0 0 0 0 0 0 0 0 0 0 0 127 0" result="hardAlpha"/>
<feOffset dx="-0.6" dy="0.6"/>
<feGaussianBlur stdDeviation="0.5"/>
<feComposite in2="hardAlpha" operator="arithmetic" k2="-1" k3="1"/>
<feColorMatrix type="matrix" values="0 0 0 0 0.901961 0 0 0 0 0.854902 0 0 0 0 0.980392 0 0 0 1 0"/>
<feBlend mode="normal" in2="shape" result="effect1_innerShadow_18590_694"/>
<feColorMatrix in="SourceAlpha" type="matrix" values="0 0 0 0 0 0 0 0 0 0 0 0 0 0 0 0 0 0 127 0" result="hardAlpha"/>
<feOffset dx="0.4" dy="-0.4"/>
<feGaussianBlur stdDeviation="0.2"/>
<feComposite in2="hardAlpha" operator="arithmetic" k2="-1" k3="1"/>
<feColorMatrix type="matrix" values="0 0 0 0 1 0 0 0 0 0.988235 0 0 0 0 1 0 0 0 1 0"/>
<feBlend mode="normal" in2="effect1_innerShadow_18590_694" result="effect2_innerShadow_18590_694"/>
</filter>
<linearGradient id="paint0_linear_18590_694" x1="16.0033" y1="5.63701" x2="16.0033" y2="38.8897" gradientUnits="userSpaceOnUse">
<stop stop-color="#5CB7FF"/>
<stop offset="1" stop-color="#4878DD"/>
</linearGradient>
<radialGradient id="paint1_radial_18590_694" cx="0" cy="0" r="1" gradientUnits="userSpaceOnUse" gradientTransform="translate(27.722 4.15625) rotate(136.771) scale(2.14444 2.50466)">
<stop stop-color="#7BD7FF"/>
<stop offset="1" stop-color="#7BD7FF" stop-opacity="0"/>
</radialGradient>
<linearGradient id="paint2_linear_18590_694" x1="28.7533" y1="4.5625" x2="28.7533" y2="27.4375" gradientUnits="userSpaceOnUse">
<stop stop-color="#7FD9FF"/>
<stop offset="1" stop-color="#639DF4"/>
</linearGradient>
<linearGradient id="paint3_linear_18590_694" x1="28.4672" y1="4.12502" x2="2.93591" y2="4.12502" gradientUnits="userSpaceOnUse">
<stop stop-color="#7DD8FF"/>
<stop offset="1" stop-color="#5DB6FF"/>
</linearGradient>
</defs>
</svg>

<svg width="100%" height="100%" viewBox="0 0 32 32" xmlns="http://www.w3.org/2000/svg"><g filter="url(#a)"><rect width="27.875" height="27.875" x="2.066" y="2.063" fill="url(#b)" rx="3.6"/><rect width="27.875" height="27.875" x="2.066" y="2.063" fill="url(#c)" rx="3.6"/></g><g filter="url(#d)"><path stroke="url(#e)" stroke-linecap="round" stroke-width="1.5" d="M28.253 4.563v22.875"/></g><g filter="url(#f)"><path stroke="url(#g)" stroke-linecap="round" stroke-width="1.5" d="M5.53 3.875h21.78"/></g><g filter="url(#h)"><path fill="#579FFF" d="M15.306 7.223a1 1 0 0 1 1.387 0l5.313 5.113c.648.624.207 1.72-.694 1.72H18.25a.25.25 0 0 0-.25.25v9.75a1 1 0 0 1-1 1h-2a1 1 0 0 1-1-1v-9.75a.25.25 0 0 0-.25-.25h-3.063c-.9 0-1.342-1.096-.693-1.72z"/></g><g filter="url(#i)"><path fill="#FCF2FF" d="M15.306 7.223a1 1 0 0 1 1.387 0l5.313 5.113c.648.624.207 1.72-.694 1.72H18.25a.25.25 0 0 0-.25.25v9.75a1 1 0 0 1-1 1h-2a1 1 0 0 1-1-1v-9.75a.25.25 0 0 0-.25-.25h-3.063c-.9 0-1.342-1.096-.693-1.72z"/></g><defs><filter id="a" width="28.875" height="28.875" x="2.066" y="1.063" color-interpolation-filters="sRGB" filterUnits="userSpaceOnUse"><feFlood flood-opacity="0" result="BackgroundImageFix"/><feBlend in="SourceGraphic" in2="BackgroundImageFix" result="shape"/><feColorMatrix in="SourceAlpha" result="hardAlpha" values="0 0 0 0 0 0 0 0 0 0 0 0 0 0 0 0 0 0 127 0"/><feOffset dx="1" dy="-1"/><feGaussianBlur stdDeviation="1.5"/><feComposite in2="hardAlpha" k2="-1" k3="1" operator="arithmetic"/><feColorMatrix values="0 0 0 0 0.188235 0 0 0 0 0.470588 0 0 0 0 0.843137 0 0 0 1 0"/><feBlend in2="shape" result="effect1_innerShadow_18590_694"/><feColorMatrix in="SourceAlpha" result="hardAlpha" values="0 0 0 0 0 0 0 0 0 0 0 0 0 0 0 0 0 0 127 0"/><feOffset dy="-1"/><feGaussianBlur stdDeviation="1.5"/><feComposite in2="hardAlpha" k2="-1" k3="1" operator="arithmetic"/><feColorMatrix values="0 0 0 0 0.27451 0 0 0 0 0.34902 0 0 0 0 0.8 0 0 0 1 0"/><feBlend in2="effect1_innerShadow_18590_694" result="effect2_innerShadow_18590_694"/></filter><filter id="d" width="5.5" height="28.375" x="25.503" y="1.813" color-interpolation-filters="sRGB" filterUnits="userSpaceOnUse"><feFlood flood-opacity="0" result="BackgroundImageFix"/><feBlend in="SourceGraphic" in2="BackgroundImageFix" result="shape"/><feGaussianBlur result="effect1_foregroundBlur_18590_694" stdDeviation="1"/></filter><filter id="f" width="27.281" height="5.5" x="2.78" y="1.125" color-interpolation-filters="sRGB" filterUnits="userSpaceOnUse"><feFlood flood-opacity="0" result="BackgroundImageFix"/><feBlend in="SourceGraphic" in2="BackgroundImageFix" result="shape"/><feGaussianBlur result="effect1_foregroundBlur_18590_694" stdDeviation="1"/></filter><filter id="h" width="14.63" height="20.112" x="8.685" y="5.944" color-interpolation-filters="sRGB" filterUnits="userSpaceOnUse"><feFlood flood-opacity="0" result="BackgroundImageFix"/><feBlend in="SourceGraphic" in2="BackgroundImageFix" result="shape"/><feGaussianBlur result="effect1_foregroundBlur_18590_694" stdDeviation=".5"/></filter><filter id="i" width="13.63" height="19.112" x="9.085" y="6.544" color-interpolation-filters="sRGB" filterUnits="userSpaceOnUse"><feFlood flood-opacity="0" result="BackgroundImageFix"/><feBlend in="SourceGraphic" in2="BackgroundImageFix" result="shape"/><feColorMatrix in="SourceAlpha" result="hardAlpha" values="0 0 0 0 0 0 0 0 0 0 0 0 0 0 0 0 0 0 127 0"/><feOffset dx="-.6" dy=".6"/><feGaussianBlur stdDeviation=".5"/><feComposite in2="hardAlpha" k2="-1" k3="1" operator="arithmetic"/><feColorMatrix values="0 0 0 0 0.901961 0 0 0 0 0.854902 0 0 0 0 0.980392 0 0 0 1 0"/><feBlend in2="shape" result="effect1_innerShadow_18590_694"/><feColorMatrix in="SourceAlpha" result="hardAlpha" values="0 0 0 0 0 0 0 0 0 0 0 0 0 0 0 0 0 0 127 0"/><feOffset dx=".4" dy="-.4"/><feGaussianBlur stdDeviation=".2"/><feComposite in2="hardAlpha" k2="-1" k3="1" operator="arithmetic"/><feColorMatrix values="0 0 0 0 1 0 0 0 0 0.988235 0 0 0 0 1 0 0 0 1 0"/><feBlend in2="effect1_innerShadow_18590_694" result="effect2_innerShadow_18590_694"/></filter><linearGradient id="b" x1="16.003" x2="16.003" y1="5.637" y2="38.89" gradientUnits="userSpaceOnUse"><stop stop-color="#5CB7FF"/><stop offset="1" stop-color="#4878DD"/></linearGradient><linearGradient id="e" x1="28.753" x2="28.753" y1="4.563" y2="27.438" gradientUnits="userSpaceOnUse"><stop stop-color="#7FD9FF"/><stop offset="1" stop-color="#639DF4"/></linearGradient><linearGradient id="g" x1="28.467" x2="2.936" y1="4.125" y2="4.125" gradientUnits="userSpaceOnUse"><stop stop-color="#7DD8FF"/><stop offset="1" stop-color="#5DB6FF"/></linearGradient><radialGradient id="c" cx="0" cy="0" r="1" gradientTransform="matrix(-1.56249 1.46876 -1.71548 -1.82495 27.722 4.156)" gradientUnits="userSpaceOnUse"><stop stop-color="#7BD7FF"/><stop offset="1" stop-color="#7BD7FF" stop-opacity="0"/></radialGradient></defs></svg>
